components/Common/Svg/svgs/clutch.svg

<svg
  width="166"
  height="85"
  viewBox="0 0 166 85"
  fill="none"
  xmlns="http://www.w3.org/2000/svg"
>
  <path
    d="M13.3605 78.6262L18.2858 81.7467C18.9154 82.1456 19.697 81.5524 19.5102 80.8174L18.0872 75.2196C18.0471 75.0636 18.0519 74.8996 18.1009 74.7462C18.1499 74.5929 18.2412 74.4565 18.3643 74.3528L22.781 70.6767C23.3614 70.1936 23.0618 69.2305 22.3162 69.1821L16.5483 68.8078C16.3929 68.7967 16.2439 68.7416 16.1186 68.6491C15.9933 68.5566 15.8968 68.4304 15.8405 68.2852L13.6892 62.8679C13.6308 62.7138 13.5268 62.5811 13.3911 62.4875C13.2555 62.3939 13.0945 62.3438 12.9297 62.3438C12.7649 62.3438 12.6039 62.3939 12.4683 62.4875C12.3326 62.5811 12.2286 62.7138 12.1701 62.8679L10.0189 68.2852C9.96257 68.4304 9.86612 68.5566 9.74081 68.6491C9.6155 68.7416 9.46649 68.7967 9.31113 68.8078L3.54317 69.1821C2.79755 69.2305 2.49802 70.1936 3.07836 70.6767L7.49509 74.3528C7.61817 74.4565 7.70948 74.5929 7.7585 74.7462C7.80752 74.8996 7.81226 75.0636 7.77219 75.2196L6.45248 80.411C6.2283 81.2929 7.1663 82.0048 7.9218 81.5261L12.4989 78.6262C12.6277 78.5443 12.7771 78.5008 12.9297 78.5008C13.0823 78.5008 13.2317 78.5443 13.3605 78.6262Z"
    fill="#161616"
  ></path>
  <path
    d="M48.3605 78.6262L53.2858 81.7467C53.9154 82.1456 54.697 81.5524 54.5102 80.8174L53.0872 75.2196C53.0471 75.0636 53.0519 74.8996 53.1009 74.7462C53.1499 74.5929 53.2412 74.4565 53.3643 74.3528L57.781 70.6767C58.3614 70.1936 58.0618 69.2305 57.3162 69.1821L51.5483 68.8078C51.3929 68.7967 51.2439 68.7416 51.1186 68.6491C50.9933 68.5566 50.8968 68.4304 50.8405 68.2852L48.6892 62.8679C48.6308 62.7138 48.5268 62.5811 48.3911 62.4875C48.2555 62.3939 48.0945 62.3438 47.9297 62.3438C47.7649 62.3438 47.6039 62.3939 47.4683 62.4875C47.3326 62.5811 47.2286 62.7138 47.1701 62.8679L45.0189 68.2852C44.9626 68.4304 44.8661 68.5566 44.7408 68.6491C44.6155 68.7416 44.4665 68.7967 44.3111 68.8078L38.5432 69.1821C37.7976 69.2305 37.498 70.1936 38.0784 70.6767L42.4951 74.3528C42.6182 74.4565 42.7095 74.5929 42.7585 74.7462C42.8075 74.8996 42.8123 75.0636 42.7722 75.2196L41.4525 80.411C41.2283 81.2929 42.1663 82.0048 42.9218 81.5261L47.4989 78.6262C47.6277 78.5443 47.7771 78.5008 47.9297 78.5008C48.0823 78.5008 48.2317 78.5443 48.3605 78.6262Z"
    fill="#161616"
  ></path>
  <path
    d="M83.3605 78.6262L88.2858 81.7467C88.9154 82.1456 89.697 81.5524 89.5102 80.8174L88.0872 75.2196C88.0471 75.0636 88.0519 74.8996 88.1009 74.7462C88.1499 74.5929 88.2412 74.4565 88.3643 74.3528L92.781 70.6767C93.3614 70.1936 93.0618 69.2305 92.3162 69.1821L86.5483 68.8078C86.3929 68.7967 86.2439 68.7416 86.1186 68.6491C85.9933 68.5566 85.8968 68.4304 85.8405 68.2852L83.6892 62.8679C83.6308 62.7138 83.5268 62.5811 83.3911 62.4875C83.2555 62.3939 83.0945 62.3438 82.9297 62.3438C82.7649 62.3438 82.6039 62.3939 82.4683 62.4875C82.3326 62.5811 82.2286 62.7138 82.1701 62.8679L80.0189 68.2852C79.9626 68.4304 79.8661 68.5566 79.7408 68.6491C79.6155 68.7416 79.4665 68.7967 79.3111 68.8078L73.5432 69.1821C72.7976 69.2305 72.498 70.1936 73.0784 70.6767L77.4951 74.3528C77.6182 74.4565 77.7095 74.5929 77.7585 74.7462C77.8075 74.8996 77.8123 75.0636 77.7722 75.2196L76.4525 80.411C76.2283 81.2929 77.1663 82.0048 77.9218 81.5261L82.4989 78.6262C82.6277 78.5443 82.7771 78.5008 82.9297 78.5008C83.0823 78.5008 83.2317 78.5443 83.3605 78.6262Z"
    fill="#161616"
  ></path>
  <path
    d="M118.36 78.6262L123.286 81.7467C123.915 82.1456 124.697 81.5524 124.51 80.8174L123.087 75.2196C123.047 75.0636 123.052 74.8996 123.101 74.7462C123.15 74.5929 123.241 74.4565 123.364 74.3528L127.781 70.6767C128.361 70.1936 128.062 69.2305 127.316 69.1821L121.548 68.8078C121.393 68.7967 121.244 68.7416 121.119 68.6491C120.993 68.5566 120.897 68.4304 120.84 68.2852L118.689 62.8679C118.631 62.7138 118.527 62.5811 118.391 62.4875C118.255 62.3939 118.095 62.3438 117.93 62.3438C117.765 62.3438 117.604 62.3939 117.468 62.4875C117.333 62.5811 117.229 62.7138 117.17 62.8679L115.019 68.2852C114.963 68.4304 114.866 68.5566 114.741 68.6491C114.615 68.7416 114.466 68.7967 114.311 68.8078L108.543 69.1821C107.798 69.2305 107.498 70.1936 108.078 70.6767L112.495 74.3528C112.618 74.4565 112.709 74.5929 112.758 74.7462C112.808 74.8996 112.812 75.0636 112.772 75.2196L111.452 80.411C111.228 81.2929 112.166 82.0048 112.922 81.5261L117.499 78.6262C117.628 78.5443 117.777 78.5008 117.93 78.5008C118.082 78.5008 118.232 78.5443 118.36 78.6262Z"
    fill="#161616"
  ></path>
  <path
    d="M153.36 78.6262L158.286 81.7467C158.915 82.1456 159.697 81.5524 159.51 80.8174L158.087 75.2196C158.047 75.0636 158.052 74.8996 158.101 74.7462C158.15 74.5929 158.241 74.4565 158.364 74.3528L162.781 70.6767C163.361 70.1936 163.062 69.2305 162.316 69.1821L156.548 68.8078C156.393 68.7967 156.244 68.7416 156.119 68.6491C155.993 68.5566 155.897 68.4304 155.84 68.2852L153.689 62.8679C153.631 62.7138 153.527 62.5811 153.391 62.4875C153.255 62.3939 153.095 62.3438 152.93 62.3438C152.765 62.3438 152.604 62.3939 152.468 62.4875C152.333 62.5811 152.229 62.7138 152.17 62.8679L150.019 68.2852C149.963 68.4304 149.866 68.5566 149.741 68.6491C149.615 68.7416 149.466 68.7967 149.311 68.8078L143.543 69.1821C142.798 69.2305 142.498 70.1936 143.078 70.6767L147.495 74.3528C147.618 74.4565 147.709 74.5929 147.758 74.7462C147.808 74.8996 147.812 75.0636 147.772 75.2196L146.452 80.411C146.228 81.2929 147.166 82.0048 147.922 81.5261L152.499 78.6262C152.628 78.5443 152.777 78.5008 152.93 78.5008C153.082 78.5008 153.232 78.5443 153.36 78.6262Z"
    fill="#161616"
  ></path>
  <path
    d="M57.8906 0H62.7497V29.9998H57.8906V0Z"
    fill="#17313B"
  ></path>
  <path
    d="M79.6574 20.4928C79.6574 25.1407 75.8546 25.5632 74.587 25.5632C71.6293 25.5632 71.2068 22.8168 71.2068 21.3379V9.71826H66.3477V21.1266C66.3477 23.8731 67.1927 26.4083 68.8828 27.8871C70.3617 29.366 72.2631 29.9998 74.587 29.9998C76.2771 29.9998 78.3898 29.5773 79.6574 28.3097V29.9998H84.5165V9.71826H79.6574V20.4928Z"
    fill="#17313B"
  ></path>
  <path
    d="M94.021 2.32422H89.1618V9.71853H85.5703V14.3664H89.1618V30.0001H94.021V14.3664H97.6125V9.71853H94.021V2.32422Z"
    fill="#17313B"
  ></path>
  <path
    d="M112.823 23.8732C111.767 24.7183 110.288 25.3521 108.809 25.3521C105.429 25.3521 103.105 22.8169 103.105 19.4366C103.105 16.0564 105.429 13.7325 108.809 13.7325C110.288 13.7325 111.767 14.155 112.823 15.2113L113.457 15.8451L116.837 12.6761L115.992 12.0423C114.091 10.3522 111.556 9.2959 108.809 9.2959C102.894 9.2959 98.457 13.7325 98.457 19.6479C98.457 25.5634 102.894 29.9999 108.809 29.9999C111.556 29.9999 114.091 28.9436 115.992 27.2535L116.837 26.6197L113.457 23.2394L112.823 23.8732Z"
    fill="#17313B"
  ></path>
  <path
    d="M133.949 11.4084C132.47 9.9295 130.991 9.29571 128.667 9.29571C126.977 9.29571 125.287 9.71823 124.019 10.9858V0H119.16V29.9998H124.019V18.8027C124.019 14.1548 127.188 13.7323 128.456 13.7323C131.414 13.7323 131.202 16.4787 131.202 17.9576V29.7885H136.061V18.1689C136.061 15.4224 135.428 12.8872 133.949 11.4084Z"
    fill="#17313B"
  ></path>
  <path
    d="M108.595 23.0281C110.462 23.0281 111.975 21.5147 111.975 19.6478C111.975 17.781 110.462 16.2676 108.595 16.2676C106.728 16.2676 105.215 17.781 105.215 19.6478C105.215 21.5147 106.728 23.0281 108.595 23.0281Z"
    fill="#EF4335"
  ></path>
  <path
    d="M51.1338 22.6055C49.4436 24.2957 46.9084 25.352 44.162 25.352C38.8803 25.352 35.0775 21.1267 35.0775 15.4225C35.0775 9.71831 38.8803 5.49299 44.3732 5.49299C46.9084 5.49299 49.4436 6.54932 51.345 8.45071L51.9788 9.08451L55.1478 5.91552L54.514 5.28172C51.7676 2.53526 48.176 1.0564 44.3732 1.0564C36.3451 0.845134 30.4297 7.18312 30.4297 15.4225C30.4297 23.6619 36.3451 29.9998 44.162 29.9998C47.9648 29.9998 51.7676 28.521 54.3027 25.7745L54.9365 25.1407L51.7676 21.9717L51.1338 22.6055Z"
    fill="#17313B"
  ></path>
</svg>

<svg width="166" height="85" viewBox="0 0 166 85" fill="none" xmlns="http://www.w3.org/2000/svg"><path d="m13.36 78.626 4.926 3.12c.63.4 1.411-.194 1.224-.929l-1.423-5.597a.855.855 0 0 1 .277-.867l4.417-3.676c.58-.483.28-1.447-.465-1.495l-5.768-.374a.822.822 0 0 1-.707-.523l-2.152-5.417a.812.812 0 0 0-1.519 0l-2.151 5.417a.822.822 0 0 1-.708.523l-5.768.374c-.745.049-1.045 1.012-.465 1.495l4.417 3.676a.855.855 0 0 1 .277.867l-1.32 5.191c-.224.882.714 1.594 1.47 1.115l4.577-2.9a.803.803 0 0 1 .861 0ZM48.36 78.626l4.926 3.12c.63.4 1.411-.194 1.224-.929l-1.423-5.597a.855.855 0 0 1 .277-.867l4.417-3.676c.58-.483.28-1.447-.465-1.495l-5.768-.374a.822.822 0 0 1-.708-.523l-2.15-5.417a.812.812 0 0 0-1.52 0l-2.151 5.417a.822.822 0 0 1-.708.523l-5.768.374c-.745.049-1.045 1.012-.465 1.495l4.417 3.676a.855.855 0 0 1 .277.867l-1.32 5.191c-.224.882.714 1.594 1.47 1.115l4.577-2.9a.803.803 0 0 1 .861 0ZM83.36 78.626l4.926 3.12c.63.4 1.411-.194 1.224-.929l-1.423-5.597a.855.855 0 0 1 .277-.867l4.417-3.676c.58-.483.28-1.447-.465-1.495l-5.768-.374a.822.822 0 0 1-.707-.523l-2.152-5.417a.812.812 0 0 0-1.519 0l-2.151 5.417a.822.822 0 0 1-.708.523l-5.768.374c-.745.049-1.045 1.012-.465 1.495l4.417 3.676a.855.855 0 0 1 .277.867l-1.32 5.191c-.224.882.714 1.594 1.47 1.115l4.577-2.9a.803.803 0 0 1 .862 0ZM118.36 78.626l4.926 3.12c.629.4 1.411-.194 1.224-.929l-1.423-5.597a.856.856 0 0 1 .277-.867l4.417-3.676c.58-.483.281-1.447-.465-1.495l-5.768-.374a.82.82 0 0 1-.708-.523l-2.151-5.417a.807.807 0 0 0-.759-.524.815.815 0 0 0-.76.524l-2.151 5.417a.821.821 0 0 1-.708.523l-5.768.374c-.745.049-1.045 1.012-.465 1.495l4.417 3.676a.855.855 0 0 1 .277.867l-1.32 5.191c-.224.882.714 1.594 1.47 1.115l4.577-2.9a.803.803 0 0 1 .861 0ZM153.36 78.626l4.926 3.12c.629.4 1.411-.194 1.224-.929l-1.423-5.597a.856.856 0 0 1 .277-.867l4.417-3.676c.58-.483.281-1.447-.465-1.495l-5.768-.374a.82.82 0 0 1-.708-.523l-2.151-5.417a.807.807 0 0 0-.759-.524.815.815 0 0 0-.76.524l-2.151 5.417a.821.821 0 0 1-.708.523l-5.768.374c-.745.049-1.045 1.012-.465 1.495l4.417 3.676a.855.855 0 0 1 .277.867l-1.32 5.191c-.224.882.714 1.594 1.47 1.115l4.577-2.9a.803.803 0 0 1 .861 0Z" fill="#161616"/><path d="M57.89 0h4.86v30h-4.86V0ZM79.657 20.493c0 4.648-3.802 5.07-5.07 5.07-2.958 0-3.38-2.746-3.38-4.225V9.718h-4.86v11.409c0 2.746.846 5.281 2.536 6.76C70.362 29.366 72.263 30 74.587 30c1.69 0 3.803-.423 5.07-1.69V30h4.86V9.718h-4.86v10.775ZM94.021 2.324h-4.86V9.72h-3.59v4.647h3.59V30h4.86V14.366h3.591V9.72h-3.591V2.324ZM112.823 23.873c-1.056.845-2.535 1.48-4.014 1.48-3.38 0-5.704-2.536-5.704-5.916 0-3.38 2.324-5.705 5.704-5.705 1.479 0 2.958.423 4.014 1.48l.634.633 3.38-3.169-.845-.634a10.83 10.83 0 0 0-7.183-2.746c-5.915 0-10.352 4.437-10.352 10.352S102.894 30 108.809 30a10.83 10.83 0 0 0 7.183-2.747l.845-.633-3.38-3.38-.634.633ZM133.949 11.408c-1.479-1.478-2.958-2.112-5.282-2.112-1.69 0-3.38.422-4.648 1.69V0h-4.859v30h4.859V18.803c0-4.648 3.169-5.07 4.437-5.07 2.958 0 2.746 2.746 2.746 4.225v11.83h4.859v-11.62c0-2.746-.633-5.28-2.112-6.76Z" fill="#17313B"/><path d="M108.595 23.028a3.38 3.38 0 1 0 0-6.76 3.38 3.38 0 0 0 0 6.76Z" fill="#EF4335"/><path d="M51.134 22.605c-1.69 1.69-4.226 2.747-6.972 2.747-5.282 0-9.084-4.225-9.084-9.93 0-5.704 3.802-9.929 9.295-9.929 2.535 0 5.07 1.056 6.972 2.958l.634.634 3.169-3.17-.634-.633c-2.746-2.747-6.338-4.226-10.14-4.226C36.344.846 30.43 7.183 30.43 15.422 30.43 23.663 36.345 30 44.162 30c3.803 0 7.606-1.479 10.14-4.226l.635-.633-3.17-3.17-.633.634Z" fill="#17313B"/></svg>
